SVG_Azure_Grouped/Security/Key Vault HSM.svg

<?xml version="1.0" encoding="UTF-8" standalone="no"?>
<!-- Generated by Microsoft Visio, SVG Export Key Vault HSM.svg Page-1 -->

<svg
   xmlns:dc="http://purl.org/dc/elements/1.1/"
   xmlns:cc="http://creativecommons.org/ns#"
   xmlns:rdf="http://www.w3.org/1999/02/22-rdf-syntax-ns#"
   xmlns:svg="http://www.w3.org/2000/svg"
   xmlns="http://www.w3.org/2000/svg"
   xmlns:sodipodi="http://sodipodi.sourceforge.net/DTD/sodipodi-0.dtd"
   xmlns:inkscape="http://www.inkscape.org/namespaces/inkscape"
   width="0.78735876in"
   height="0.70869911in"
   viewBox="0 0 56.690032 51.026465"
   xml:space="preserve"
   class="st5"
   version="1.1"
   id="svg34"
   sodipodi:docname="Key Vault HSM.svg"
   style="font-size:12px;overflow:visible;color-interpolation-filters:sRGB;fill:none;fill-rule:evenodd;stroke-linecap:square;stroke-miterlimit:3"
   inkscape:version="0.92.5 (2060ec1f9f, 2020-04-08)"><metadata
   id="metadata40"><rdf:RDF><cc:Work
       rdf:about=""><dc:format>image/svg+xml</dc:format><dc:type
         rdf:resource="http://purl.org/dc/dcmitype/StillImage" /></cc:Work></rdf:RDF></metadata><defs
   id="defs38" /><sodipodi:namedview
   pagecolor="#ffffff"
   bordercolor="#666666"
   borderopacity="1"
   objecttolerance="10"
   gridtolerance="10"
   guidetolerance="10"
   inkscape:pageopacity="0"
   inkscape:pageshadow="2"
   inkscape:window-width="640"
   inkscape:window-height="480"
   id="namedview36"
   showgrid="false"
   inkscape:zoom="1.8522286"
   inkscape:cx="37.795192"
   inkscape:cy="18.35178"
   inkscape:window-x="0"
   inkscape:window-y="0"
   inkscape:window-maximized="0"
   inkscape:current-layer="svg34" />
	<style
   type="text/css"
   id="style2">
	<![CDATA[
		.st1 {fill:#3e3e3e;stroke:none;stroke-linecap:butt;stroke-width:10.5214}
		.st2 {fill:#ffffff;fill-opacity:0.2;stroke:none;stroke-linecap:butt;stroke-width:10.5214}
		.st3 {fill:#b8d432;stroke:none;stroke-linecap:butt;stroke-width:10.5214}
		.st4 {fill:#fcd116;stroke:none;stroke-linecap:butt;stroke-width:10.5214}
		.st5 {fill:none;fill-rule:evenodd;font-size:12px;overflow:visible;stroke-linecap:square;stroke-miterlimit:3}
	]]>
	</style>

	<g
   id="g32"
   transform="translate(-10.5214,-10.51781)">
		<title
   id="title4">Page-1</title>
		<g
   id="group16779-1"
   transform="translate(10.5214,-34.0157)">
			<title
   id="title6">Key Vault HSM.16779</title>
			<g
   id="group16780-2">
				<title
   id="title8">layer1</title>
				<g
   id="shape16781-3">
					<title
   id="title10">path2</title>
					<path
   d="M 54.17,74.69 H 2.52 A 2.51943,2.47003 -180 0 0 0,77.16 v 15.93 c 0,1.36 1.13,2.47 2.52,2.47 h 51.65 a 2.51943,2.47003 -180 0 0 2.52,-2.47 V 77.16 c 0,-1.36 -1.13,-2.47 -2.52,-2.47 z"
   class="st1"
   id="path12"
   inkscape:connector-curvature="0"
   style="fill:#3e3e3e;stroke:none;stroke-width:10.52140045;stroke-linecap:butt" />
				</g>
				<g
   id="shape16782-5">
					<title
   id="title15">path4</title>
					<path
   d="M 43.97,74.69 H 2.52 A 2.51943,2.47003 -180 0 0 0,77.16 v 15.93 c 0,1.36 1.13,2.47 2.52,2.47 h 9.7 z"
   class="st2"
   id="path17"
   inkscape:connector-curvature="0"
   style="fill:#ffffff;fill-opacity:0.2;stroke:none;stroke-width:10.52140045;stroke-linecap:butt" />
				</g>
				<g
   id="shape16783-7"
   transform="translate(35.1496,-13.3395)">
					<title
   id="title20">path6</title>
					<path
   d="m 13.61,92.23 h 3.4 v 3.33 h -3.4 z m -6.81,0 h 3.4 v 3.33 H 6.8 Z m -6.8,0 h 3.4 v 3.33 H 0 Z"
   class="st3"
   id="path22"
   inkscape:connector-curvature="0"
   style="fill:#b8d432;stroke:none;stroke-width:10.52140045;stroke-linecap:butt" />
				</g>
				<g
   id="shape16784-9"
   transform="translate(15.9874,-4.44649)">
					<title
   id="title25">path8</title>
					<path
   d="M 23.58,60.54 C 23.58,54.16 18.31,48.98 11.79,48.98 5.28,48.98 0,54.16 0,60.54 c 0,5.43 3.82,9.97 8.96,11.22 v 13.8 H 3.29 v 5.55 h 5.67 v 4.45 h 5.67 v -23.8 c 5.14,-1.25 8.95,-5.79 8.95,-11.22 z M 11.79,66.6 c -3.4,0 -6.18,-2.72 -6.18,-6.06 0,-3.33 2.78,-6.05 6.18,-6.05 3.41,0 6.18,2.72 6.18,6.05 0,3.34 -2.77,6.06 -6.18,6.06 z"
   class="st4"
   id="path27"
   inkscape:connector-curvature="0"
   style="fill:#fcd116;stroke:none;stroke-width:10.52140045;stroke-linecap:butt" />
				</g>
			</g>
		</g>
	</g>
</svg>

<?xml version="1.0" encoding="UTF-8" standalone="no"?>
<!DOCTYPE svg PUBLIC "-//W3C//DTD SVG 1.1//EN" "http://www.w3.org/Graphics/SVG/1.1/DTD/svg11.dtd">
<!-- Generated by Microsoft Visio, SVG Export Key Vault HSM.svg Page-1 -->
<svg xmlns="http://www.w3.org/2000/svg" xmlns:xlink="http://www.w3.org/1999/xlink" xmlns:ev="http://www.w3.org/2001/xml-events"
		width="1.07966in" height="1.32723in" viewBox="0 0 77.7358 95.5608" xml:space="preserve" color-interpolation-filters="sRGB"
		class="st5">
	<style type="text/css">
	<![CDATA[
		.st1 {fill:#3e3e3e;stroke:none;stroke-linecap:butt;stroke-width:10.5214}
		.st2 {fill:#ffffff;fill-opacity:0.2;stroke:none;stroke-linecap:butt;stroke-width:10.5214}
		.st3 {fill:#b8d432;stroke:none;stroke-linecap:butt;stroke-width:10.5214}
		.st4 {fill:#fcd116;stroke:none;stroke-linecap:butt;stroke-width:10.5214}
		.st5 {fill:none;fill-rule:evenodd;font-size:12px;overflow:visible;stroke-linecap:square;stroke-miterlimit:3}
	]]>
	</style>

	<g>
		<title>Page-1</title>
		<g id="group16390-1" transform="translate(10.5214,-34.0157)">
			<title>Key Vault HSM.16390</title>
			<g id="group16391-2">
				<title>layer1</title>
				<g id="shape16392-3">
					<title>path2</title>
					<path d="M54.17 74.69 L2.52 74.69 A2.51943 2.47003 -180 0 0 -0 77.16 L0 93.09 C0 94.45 1.13 95.56 2.52 95.56
								 L54.17 95.56 A2.51943 2.47003 -180 0 0 56.69 93.09 L56.69 77.16 C56.69 75.8 55.56 74.69 54.17 74.69
								 Z" class="st1"/>
				</g>
				<g id="shape16393-5">
					<title>path4</title>
					<path d="M43.97 74.69 L2.52 74.69 A2.51943 2.47003 -180 0 0 0 77.16 L0 93.09 C0 94.45 1.13 95.56 2.52 95.56 L12.22
								 95.56 L43.97 74.69 Z" class="st2"/>
				</g>
				<g id="shape16394-7" transform="translate(35.1496,-13.3395)">
					<title>path6</title>
					<path d="M13.61 92.23 L17.01 92.23 L17.01 95.56 L13.61 95.56 L13.61 92.23 ZM6.8 92.23 L10.2 92.23 L10.2 95.56
								 L6.8 95.56 L6.8 92.23 ZM0 92.23 L3.4 92.23 L3.4 95.56 L0 95.56 L0 92.23 Z" class="st3"/>
				</g>
				<g id="shape16395-9" transform="translate(15.9874,-4.44649)">
					<title>path8</title>
					<path d="M23.58 60.54 C23.58 54.16 18.31 48.98 11.79 48.98 C5.28 48.98 0 54.16 0 60.54 C0 65.97 3.82 70.51 8.96
								 71.76 L8.96 85.56 L3.29 85.56 L3.29 91.11 L8.96 91.11 L8.96 95.56 L14.63 95.56 L14.63 71.76 C19.77
								 70.51 23.58 65.97 23.58 60.54 ZM11.79 66.6 C8.39 66.6 5.61 63.88 5.61 60.54 C5.61 57.21 8.39 54.49
								 11.79 54.49 C15.2 54.49 17.97 57.21 17.97 60.54 C17.97 63.88 15.2 66.6 11.79 66.6 Z" class="st4"/>
				</g>
			</g>
		</g>
	</g>
</svg>
